conference/2018/11/assets/img/icon-menu.svg

<svg viewBox="0 0 10 10" xmlns="http://www.w3.org/2000/svg"><path d="m.625 1.25h8.75c.34517797 0 .625.27982203.625.625s-.27982203.625-.625.625h-8.75c-.34517797 0-.625-.27982203-.625-.625s.27982203-.625.625-.625zm0 3.125h8.75c.34517797 0 .625.27982203.625.625s-.27982203.625-.625.625h-8.75c-.34517797 0-.625-.27982203-.625-.625s.27982203-.625.625-.625zm0 3.125h8.75c.34517797 0 .625.27982203.625.625s-.27982203.625-.625.625h-8.75c-.34517797 0-.625-.27982203-.625-.625s.27982203-.625.625-.625z" fill-rule="evenodd"/></svg>

<svg class="iconButton__image" viewBox="0 0 10 10" xmlns="http://www.w3.org/2000/svg">
        <path d="M0.625,1.25 L9.375,1.25 C9.72017797,1.25 10,1.52982203 10,1.875 C10,2.22017797 9.72017797,2.5 9.375,2.5 L0.625,2.5 C0.279822031,2.5 4.22721094e-17,2.22017797 0,1.875 C-4.22721094e-17,1.52982203 0.279822031,1.25 0.625,1.25 Z M0.625,4.375 L9.375,4.375 C9.72017797,4.375 10,4.65482203 10,5 C10,5.34517797 9.72017797,5.625 9.375,5.625 L0.625,5.625 C0.279822031,5.625 4.22721094e-17,5.34517797 0,5 C-4.22721094e-17,4.65482203 0.279822031,4.375 0.625,4.375 Z M0.625,7.5 L9.375,7.5 C9.72017797,7.5 10,7.77982203 10,8.125 C10,8.47017797 9.72017797,8.75 9.375,8.75 L0.625,8.75 C0.279822031,8.75 4.22721094e-17,8.47017797 0,8.125 C-4.22721094e-17,7.77982203 0.279822031,7.5 0.625,7.5 Z" fill-rule="evenodd"></path></svg>
